X: 36018
T: Say Yes Four Times
R: polka
M: 2/4
K: Bminor
B>B BB|dB Bd|AF Fd|AFD2|
G>F EF|GA Bc/B/|AB cd|ec A2|
B>B BB|dB BF|Bc d/c/B|=c2BA|
GB dB|Ac ed|ce a>g|fd de|
|:fd Bc|dB Bd|ec Ae/d/|cA A2|
FA dA|GB dB|Ac a>g|fdd2:|

